X: 2
T: Mr. Charles Graham's Welcome Home (J-41)
I: Mr. Charles Graham's Welcome Home	J-41	A Dor	jig
%%musicspace	0.0cm
C: Wm. Gow
M: 6/8
R: jig
K: ADor
A/G/| "Am"EAA A2G| BAA A2B| "G"d2e dBg| BGG G2A/G/|
      "Am"EAA A2G| BAA A2B| "G"d2e dBg| "Am"BAA A2 :|
e| "Am"a>^ga a2e| a>^ga a2e| "G"=g>bg e>ge| dBG G2e|
   "Am"a>^ga a2e| a>^ga a2e| "G"=g>bg e>ge| d>BA "Am"A2e|
   "Am"a>^ga a2e| a>^ga a2e| "G"=g>bg e>ge| dBG G2A/G/|
   "Am"EAA A2G| BAA A2B| "G"d2e dBg| "Am"BAA A2|]

